src/assets/Icons/Category-Camera.svg

<svg width="56" height="56" viewBox="0 0 56 56" fill="none" xmlns="http://www.w3.org/2000/svg">
<g clip-path="url(#clip0_138_1570)">
<path d="M11.6667 16.3333H14C15.2377 16.3333 16.4247 15.8416 17.2998 14.9665C18.175 14.0913 18.6667 12.9043 18.6667 11.6666C18.6667 11.0478 18.9125 10.4543 19.3501 10.0167C19.7877 9.57915 20.3812 9.33331 21 9.33331H35C35.6188 9.33331 36.2123 9.57915 36.6499 10.0167C37.0875 10.4543 37.3333 11.0478 37.3333 11.6666C37.3333 12.9043 37.825 14.0913 38.7002 14.9665C39.5753 15.8416 40.7623 16.3333 42 16.3333H44.3333C45.571 16.3333 46.758 16.825 47.6332 17.7001C48.5083 18.5753 49 19.7623 49 21V42C49 43.2377 48.5083 44.4246 47.6332 45.2998C46.758 46.175 45.571 46.6666 44.3333 46.6666H11.6667C10.429 46.6666 9.242 46.175 8.36683 45.2998C7.49167 44.4246 7 43.2377 7 42V21C7 19.7623 7.49167 18.5753 8.36683 17.7001C9.242 16.825 10.429 16.3333 11.6667 16.3333" stroke="black" stroke-width="2" stroke-linecap="round" stroke-linejoin="round"/>
<path d="M28 37.3333C31.866 37.3333 35 34.1993 35 30.3333C35 26.4673 31.866 23.3333 28 23.3333C24.134 23.3333 21 26.4673 21 30.3333C21 34.1993 24.134 37.3333 28 37.3333Z" stroke="black" stroke-width="2" stroke-linecap="round" stroke-linejoin="round"/>
</g>
<defs>
<clipPath id="clip0_138_1570">
<rect width="56" height="56" fill="white"/>
</clipPath>
</defs>
</svg>

<svg xmlns="http://www.w3.org/2000/svg" width="56" height="56" fill="none" xmlns:v="https://vecta.io/nano"><g clip-path="url(#A)" stroke="#000" stroke-width="2" stroke-linejoin="round"><path d="M11.667 16.333H14c1.238 0 2.425-.492 3.3-1.367s1.367-2.062 1.367-3.3c0-.619.246-1.212.683-1.65s1.031-.683 1.65-.683h14c.619 0 1.212.246 1.65.683s.683 1.031.683 1.65c0 1.238.492 2.425 1.367 3.3s2.062 1.367 3.3 1.367h2.333c1.238 0 2.425.492 3.3 1.367S49 19.762 49 21v21c0 1.238-.492 2.425-1.367 3.3s-2.062 1.367-3.3 1.367H11.667c-1.238 0-2.425-.492-3.3-1.367S7 43.238 7 42V21c0-1.238.492-2.425 1.367-3.3s2.062-1.367 3.3-1.367" stroke-linecap="round"/><path d="M28 37.333a7 7 0 1 0 0-14 7 7 0 1 0 0 14z"/></g><defs><clipPath id="A"><path fill="#fff" d="M0 0h56v56H0z"/></clipPath></defs></svg>
